!!!OTL: Himmelsrose.
!!!ARE: Europa, Mitteleuropa, Deutschland
!!!SCT: A0516
!!!TXL: @@DE
!!!YEM: Copyright 1995, estate of Helmut Schaffrath.
**kern	**text
*M4/2	*
*met(c|)	*
*clefC1	*
*k[b-]	*
*d:dor	*
=1	=1
!LO:TX:a:t=dor. mit aeol. Schluß.	!
1ryy	.
2ryy	.
!LO:TX:a:t=1)	!
{2a	Es
=2	=2
2b-	floß
2g	ein
2b-	roſ'
2cc	von
=3	=3
2dd	hi-
4dd	-mel
4cc	her-
2dd}	-ab,
{2a	was
=4	=4
2g	lau-
2dd	-ter
2cc	vnd
2b-	auch
=5	=5
1a	klar,
2r}	.
{2dd	ein
=6	=6
2dd	kind-
4dd	-lein
4dd	iſt
2cc	er
2dd	ge-
=7	=7
*lig	*
!LO:TX:a:t=2)	!
2cc	-bo-
4b-	.
4a	.
*Xlig	*
2g}	-ren
{4cc	von
4cc	der
=8	=8
2a	ed-
2f	-len
2g/	junk-
4f	-fraw
4e	.
=9	=9
1d	ʒart.
2r}	.
!LO:TX:a:t=3)	!
{2b-	O
=10	=10
4a	Je-
4g	.
4f	.
4e	.
2d	-ſu,
2c	ein
=11	=11
2f	groſ-
2g/	-ſe
2a	frewd
4f	war
4e	es
=12	=12
0d/ll}	das!
==	==
!!!GTL: Geistliche Volkslieder
!!!AGN: Romanze, Ballade, Lied, religioeses Lied
!! Speiersches Gsgb. 1617 fol. 31.
!!!ONB: ESAC (Essen Associative Code) Database: ALTDEU
!!!AMT: simple quadruple
!!!AIN: vox
!!!EED: Helmut Schaffrath
!!!EEV: 1.0
!!!RDF**kern: l = terminal long
!!!AMD: Dorian
!!!URL-scan: https://rosdok.uni-rostock.de/mcrviewer/recordIdentifier/rosdok_ppn738218359/iview2/phys_0694.iview2?x=-1272.8135649766991&y=523.2292996253818&scale=0.3197610882076923&rotation=0&layout=singlePageLayout&logicalDiv=log_0018
!!!ENC: Anna Maria Matuszewska
!!!EEV: 2024/19/03
*-	*-
